jsapp/svg-icons/comment.svg

<svg height="40" viewBox="0 0 40 40" width="40" xmlns="http://www.w3.org/2000/svg"><path d="m12 11v12h4v2l2.667-2h9.333v-12zm2 18v-4h-2c-1.103 0-2-.897-2-2v-12c0-1.103.897-2 2-2h16c1.103 0 2 .897 2 2v12c0 1.103-.897 2-2 2h-8.667z" fill-rule="evenodd"/></svg>

<?xml version="1.0" encoding="UTF-8"?>
<svg width="40px" height="40px" viewBox="0 0 40 40" version="1.1" xmlns="http://www.w3.org/2000/svg" xmlns:xlink="http://www.w3.org/1999/xlink">
    <!-- Generator: Sketch 50.2 (55047) - http://www.bohemiancoding.com/sketch -->
    <title>Icons/comment</title>
    <desc>Created with Sketch.</desc>
    <defs>
        <path d="M12,11 L12,23 L16,23 L16,25 L18.667,23 L28,23 L28,11 L12,11 Z M14,29 L14,25 L12,25 C10.897,25 10,24.103 10,23 L10,11 C10,9.897 10.897,9 12,9 L28,9 C29.103,9 30,9.897 30,11 L30,23 C30,24.103 29.103,25 28,25 L19.333,25 L14,29 Z" id="path-1"></path>
    </defs>
    <g id="Icons/comment" stroke="none" stroke-width="1" fill="none" fill-rule="evenodd">
        <mask id="mask-2" fill="white">
            <use xlink:href="#path-1"></use>
        </mask>
        <use id="Mask" fill="#000000" xlink:href="#path-1"></use>
    </g>
</svg>
